hbogo.svg

<svg viewBox="0 0 24 24" xmlns="http://www.w3.org/2000/svg"><path d="M21.3426 10.9777C20.7655 10.9777 20.2973 11.445 20.2973 12.0226C20.2973 12.5993 20.7655 13.0674 21.3426 13.0674C21.9197 13.0674 22.3875 12.5993 22.3875 12.0226C22.3875 11.445 21.9197 10.9777 21.3426 10.9777" fill="#4279bb"/><path d="M21.3526 13.3648C20.6173 13.3648 20.0204 12.7679 20.0204 12.0326C20.0204 11.2969 20.6173 10.7008 21.3526 10.7008C22.0883 10.7008 22.684 11.2969 22.684 12.0326C22.684 12.7679 22.0883 13.3648 21.3526 13.3648M21.3427 9.36457C19.8745 9.36457 18.6846 10.5549 18.6846 12.0227C18.6846 13.4901 19.8745 14.68 21.3427 14.68C22.8101 14.68 24 13.4901 24 12.0227C24 10.5549 22.8101 9.36457 21.3427 9.36457M15.9206 12.7436L17.4161 12.7436C17.0824 13.7052 16.1727 13.5451 16.1727 13.5451C15.4378 13.5316 15.0929 12.9307 15.0929 12.9307C14.4781 11.8616 15.0929 11.0744 15.0929 11.0744C15.3732 10.5801 16.1077 10.5266 16.1077 10.5266C17.0023 10.5266 17.3095 11.1945 17.3095 11.1945L18.698 11.1945C18.3504 10.1322 17.3515 9.36446 16.1727 9.36446C14.7053 9.36446 13.5157 10.5548 13.5157 12.0226C13.5157 13.49 14.7053 14.6803 16.1727 14.6803C17.6412 14.6803 18.8308 13.49 18.8308 12.0226C18.8308 11.9231 18.8248 11.8252 18.8141 11.7289L15.9206 11.7289C15.9206 11.7289 15.9206 12.7436 15.9206 12.7436ZM10.2638 13.0072C10.839 13.0072 11.3039 12.5411 11.3039 11.9663C11.3039 11.3912 10.839 10.925 10.2638 10.925C9.68909 10.925 9.22295 11.3912 9.22295 11.9663C9.22295 12.5411 9.68909 13.0072 10.2638 13.0072M8.93954 11.9663C8.93954 11.2342 9.53292 10.642 10.2638 10.642C10.9952 10.642 11.5885 11.2342 11.5885 11.9663C11.5885 12.6973 10.9952 13.2902 10.2638 13.2902C9.53292 13.2902 8.93954 12.6973 8.93954 11.9663M7.09598 11.9663C7.25929 11.9449 7.53239 11.7582 7.62871 11.6381C7.59502 11.7868 7.59264 12.216 7.63188 12.3639C7.52209 12.195 7.26206 11.9869 7.09598 11.9663M6.14387 10.5643C6.35197 10.5643 6.51568 10.7697 6.51568 11.0039C6.51568 11.2374 6.35197 11.4435 6.14387 11.4435L5.42841 11.4435L5.42841 10.5643C5.42841 10.5643 6.14387 10.5643 6.14387 10.5643ZM6.1411 12.5173C6.34959 12.5173 6.5133 12.7226 6.5133 12.9573C6.5133 13.1911 6.34959 13.3965 6.1411 13.3965L5.42603 13.3965L5.42603 12.5173L6.1411 12.5173ZM10.263 14.6344C11.7205 14.634 12.9065 13.4226 12.9061 11.9655C12.9061 10.4767 11.7205 9.3205 10.263 9.31971C8.80675 9.31812 8.06314 10.3895 7.87962 10.8224C7.8812 10.1735 7.24145 9.40691 6.49269 9.40572L4.08112 9.40572L4.08112 14.6078L6.32938 14.6086C7.23629 14.6086 7.8812 13.8234 7.882 13.1499C8.0897 13.5736 8.80675 14.6351 10.263 14.6344M3.78661 14.6098L2.37312 14.6098L2.37312 12.5914L1.4555 12.5914L1.4555 14.6098L0.00475424 14.6098L0 9.40651L1.4555 9.40651L1.4555 11.3424L2.37312 11.3424L2.37312 9.40651L3.78661 9.40651L3.78661 14.6098C3.78661 14.6098 3.78661 14.6098 3.78661 14.6098Z" fill="#000000"/></svg>

<svg viewBox="0 0 24 24" xmlns="http://www.w3.org/2000/svg"><path d="M21.343 10.978a1.045 1.045 0 1 0-.001 2.09 1.045 1.045 0 0 0 0-2.09" fill="#4279bb"/><path d="M21.353 13.365a1.333 1.333 0 1 1 0-2.666 1.333 1.333 0 0 1 0 2.666m-.01-4a2.658 2.658 0 1 0 0 5.316 2.658 2.658 0 0 0 0-5.316m-5.422 3.379h1.495c-.334.961-1.243.801-1.243.801-.735-.013-1.08-.614-1.08-.614-.615-1.07 0-1.857 0-1.857.28-.494 1.015-.547 1.015-.547.894 0 1.201.668 1.201.668h1.389a2.658 2.658 0 1 0 .116.534h-2.893v1.015Zm-5.657.263a1.04 1.04 0 1 0 0-2.08 1.04 1.04 0 0 0 0 2.08m-1.324-1.04a1.324 1.324 0 1 1 2.648-.001 1.324 1.324 0 0 1-2.648 0m-1.844 0c.163-.021.436-.208.533-.328-.034.149-.036.578.003.726-.11-.169-.37-.377-.536-.398m-.952-1.402c.208 0 .372.206.372.44 0 .233-.164.44-.372.44h-.716v-.88h.716Zm-.003 1.953c.209 0 .372.206.372.44s-.163.44-.372.44h-.715v-.88h.715Zm4.122 2.117c1.457 0 2.643-1.211 2.643-2.668a2.629 2.629 0 0 0-2.643-2.646c-1.456-.002-2.2 1.07-2.383 1.502.001-.648-.639-1.415-1.387-1.416H4.08v5.202H6.33c.907 0 1.552-.785 1.553-1.458.208.424.925 1.485 2.381 1.484m-6.476-.024H2.373V12.59h-.918v2.019H.006L0 9.407h1.456v1.935h.917V9.407h1.414v5.203Z"/></svg>
